X:1215
T:Cumberland Nelly
A:North-West
M:C|
O:England
R:Reel
Z:Richard Robinson 
%%TUNEURL: http://www.leeds.ac.uk/music/Info/RRTuneBk/gettune/00000517.html
%%ID:00000517
K:E min
B2|\
A3G A2BA| G2E2 E2GE| D2G2 G2A2| Bcd2 d2ef| \
g3f efg2| B2AG A2GA| B2e2 B3A| G2E2 E2::\
ef|\
g3f efge| d2B2 B2GA| B2e2 edef| g2e2 e2ef| \
g3f efge| d2BG A2GA| B2e2 BcBA| G2E2 E2:|
